!!!!SEGMENT: pl-cz--iii-692--001-009_volckmer-augustin--miserere-recitativo-quoniam-si-voluisses.krn
!!!cenid: 17xx:1156
!!!COM: Volckmer, Augustin
!!!COM-rismID:
!!!CDT: 1755-~1820
!!!CNT:
!!!OPR: Miserere
!!!OTL: Recitativo - Quoniam si voluisses
!!!OMV: 009
!!!PDT:
!!!AGN: Sacred
!!!SMS-siglum: PL-CZ
!!!SMS-shelfmark: III-692
!!!SMS-shelfwork: 001-009 M
!!!SMS-variant:
!!!SMS-altvar:
!!!NIFC-rismSourceID: 300001392
!!!NIFC-islandoraID: pl-cz:40420
!!!URL-pdf-islandora: https://repozytorium.nifc.pl/islandora/object/pl-cz%3A40420/datastream/PDF/view
!!!URL-scan:
!!!ONB-nifc: UWAGA: części Miserere: 1. Miserere, 2. Recitativo – Amplius lava me, 3. Aria – Quoniam, 4. Aria – Asperges me, 5. Averte faciem tuam, 6. Cor mundum, 7. Duetto – Docebo iniquos, 8. Arietta – Domine labia mea, 9. Recitativo – Quoniam si voluisses, 10. Aria – Sacrificium Deo, 11. Gloria Patri, 12. Sicut erat
!!!AIN: 1 alto 1 bass 2 cor 2 oboe 1 organ 1 soprn 1 tenor 1 viola 2 violn
!!!key: E-
**kern	**kern	**kern	**kern	**kern	**kern	**kern	**kern	**text	**kern	**kern	**kern	**kern
*	*group4	*group4	*group4	*group3	*group3	*group3	*group3	*	*group2	*group2	*group1	*group1
*part12	*part11	*part10	*part9	*part8	*part7	*part6	*part5	*	*part4	*part3	*part2	*part1
*staff12	*staff11	*staff10	*staff9	*staff8	*staff7	*staff6	*staff5	*	*staff4	*staff3	*staff2	*staff1
*I"Organo.	*I"Viola obl=	*I"Violino Secondo.	*I"Violino Primo	*I"Basſo	*I"Tenore	*I"Alto.	*I"Canto	*	*I"Cornu Secondo in Dis	*I"Cornu Primo. in Dis	*I"Oboa Seconda	*I"Oboa Prima .
*I'org	*I'vla obl	*I'vl 2	*I'vl 1	*I'B	*I'T	*I'A	*I'S	*	*I'cor 2	*I'cor 1	*I'ob 2	*I'ob 1
*Iorgan	*Iviola	*Ivioln	*Ivioln	*Ibass	*Itenor	*Ialto	*Isoprn	*	*Icor	*Icor	*Ioboe	*Ioboe
*ICklav	*ICstr	*ICstr	*ICstr	*ICvox	*ICvox	*ICvox	*ICvox	*	*ICbras	*ICbras	*ICww	*ICww
*IGcont	*	*	*	*IGcoro	*IGcoro	*IGcoro	*IGcoro	*	*	*	*	*
*clefF4	*clefC3	*clefG2	*clefG2	*clefF4	*clefC4	*clefC3	*clefC1	*	*clefG2	*clefG2	*clefG2	*clefG2
*	*	*	*	*	*	*	*	*	*ITrd5c9	*ITrd5c9	*	*
*k[b-e-a-]	*k[b-e-a-]	*k[b-e-a-]	*k[b-e-a-]	*k[b-e-a-]	*k[b-e-a-]	*k[b-e-a-]	*k[b-e-a-]	*	*k[b-e-a-]	*k[b-e-a-]	*k[b-e-a-]	*k[b-e-a-]
*E-:	*E-:	*E-:	*E-:	*E-:	*E-:	*E-:	*E-:	*	*E-:	*E-:	*E-:	*E-:
*M4/4	*M4/4	*M4/4	*M4/4	*M4/4	*M4/4	*M4/4	*M4/4	*	*M4/4	*M4/4	*M4/4	*M4/4
*met(c)	*met(c)	*met(c)	*met(c)	*met(c)	*met(c)	*met(c)	*met(c)	*	*met(c)	*met(c)	*met(c)	*met(c)
=1	=1	=1	=1	=1	=1	=1	=1	=1	=1	=1	=1	=1
!	!	!	!	!	!	!	!	!	!LO:TX:a:t=in Dis	!LO:TX:a:t=in Dis	!	!
!LO:TX:t=P:problem:powyżej partii Organo pięciolinia z pomocniczo zapisaną partią Sopranu	!LO:TX:t=P:problem:powyżej partii Viola obl pięciolinia z pomocniczo zapisaną partią Sopranu	!LO:TX:t=P:problem:powyżej partii Violino Secundo pięciolinia z pomocniczo zapisaną partią Sopranu	!LO:TX:t=P:problem:powyżej partii Violino Primo pięciolinia z pomocniczo zapisaną partią Sopranu	!	!	!	!LO:TX:t=P:problem:poniżej partii Canto pięciolinia z pomocniczo zapisaną partią Violino Primo	!	!LO:TX:t=P:problem:powyżej partii Cornu Secondo pięciolinia z pomocniczo zapisaną partią Sopranu	!LO:TX:t=P:problem:powyżej partii Cornu Primo pięciolinia z pomocniczo zapisaną partią Sopranu	!	!
!LO:TX:a:t=adagio di molto	!LO:TX:a:t=Adagio di molto	!LO:TX:a:t=Adagio di Molto.	!LO:TX:a:t=Adagio di molto	!LO:TX:a:t=Recitat et Aria Tacet.	!LO:TX:a:t=Recitat. et Aria Tacet	!LO:TX:a:i:t=Recitat et Aria Tacet	!LO:TX:a:t=Adagio molto.	!	!	!LO:TX:a:t=adagio di motto	!LO:TX:a:t=Aria et Recitat Tacet	!LO:TX:a:t=Aria et Recitativ Tacet
8r	8r	8r	8r	1ryy	1ryy	1ryy	2r	.	8r	8r	1ryy	1ryy
8E-\L	8B-/L	8G/L	8e-/L	.	.	.	.	.	8G/L	8e-\L	.	.
8E-\	8B-/	8G/	8e-/	.	.	.	.	.	8G/	8e-\	.	.
8E-\J	8B-/J	8G/J	8e-/J	.	.	.	.	.	8G/J	8e-\J	.	.
4E-\	4B-/	4G/	4e-/	.	.	.	4r	.	4G/	4e-\	.	.
4r	4r	4r	4r	.	.	.	8.b-\	Quo-	4r	4r	.	.
.	.	.	.	.	.	.	16e-/	-ni-	.	.	.	.
=2	=2	=2	=2	=2	=2	=2	=2	=2	=2	=2	=2	=2
8r	8r	8r	8r	1ryy	1ryy	1ryy	8e-/	-am	8r	8r	1ryy	1ryy
16r	16r	16r	16r	.	.	.	8r	.	16r	16r	.	.
16E-\	16B-/	16G/	16e-/	.	.	.	.	.	16G/	16e-\	.	.
8E-\	8B-/	8G/	8e-/	.	.	.	16r	.	8G/	8e-\	.	.
.	.	.	.	.	.	.	16e-/	ſi	.	.	.	.
8r	8r	8r	8r	.	.	.	16g/	vo-	8r	8r	.	.
.	.	.	.	.	.	.	16e-/	-lu-	.	.	.	.
.	.	.	.	.	.	.	16qqf/	.	.	.	.	.
8r	8r	8r	8r	.	.	.	8e-/	-is-	8r	8r	.	.
16r	16r	16r	16r	.	.	.	8d/	-ſes	16r	16r	.	.
16BB-/	16f\	16A-/	16d/	.	.	.	.	.	16B-/	16f\	.	.
8BB-/L	8f\L	8A-/L	8d/L	.	.	.	4r	.	8B-/L	8f\L	.	.
8BB-/J	8f\J	8A-/J	8d/J	.	.	.	.	.	8B-/J	8f\J	.	.
=3	=3	=3	=3	=3	=3	=3	=3	=3	=3	=3	=3	=3
4BB-/	4f\	4A-/	4d/	1ryy	1ryy	1ryy	4r	.	4B-/	4f\	1ryy	1ryy
4r	4r	4r	4r	.	.	.	8.a-\	Sa-	4r	4r	.	.
.	.	.	.	.	.	.	16f/	-cri-	.	.	.	.
.	.	.	.	.	.	.	16qqa-/	.	.	.	.	.
8r	8r	8r	8r	.	.	.	16.g\	-fi-	8r	8r	.	.
.	.	.	.	.	.	.	32g\	-ci-	.	.	.	.
16r	16r	16r	16r	.	.	.	8g\	-um	16r	16r	.	.
16E-\	16B-/	16G/	16e-/	.	.	.	.	.	16G/	16e-\	.	.
8E-\L	8B-/L	8G/L	8e-/L	.	.	.	4r	.	8G/L	8e-\L	.	.
8E-\J	8B-/J	8G/J	8e-/J	.	.	.	.	.	8G/J	8e-\J	.	.
=4	=4	=4	=4	=4	=4	=4	=4	=4	=4	=4	=4	=4
4E-\	4B-/	4G/	4e-/	1ryy	1ryy	1ryy	2r	.	4G/	4e-\	1ryy	1ryy
8E-\L	4r	8g/L	8b-\L	.	.	.	.	.	4r	4r	.	.
8E-\J	.	8a-/J	8cc\J	.	.	.	.	.	.	.	.	.
!	!LO:LB:g=original	!	!	!	!	!	!	!	!	!	!	!
4E-\	4b-\	4g/	4dd-X\	.	.	.	4r	.	4e-\	4b-\	.	.
4r	4r	4r	4r	.	.	.	16r	.	4r	4r	.	.
.	.	.	.	.	.	.	16b-\	de-	.	.	.	.
.	.	.	.	.	.	.	16dd-X\	-diſ-	.	.	.	.
.	.	.	.	.	.	.	16g\	-sem	.	.	.	.
!LO:LB:g=original	!	!LO:LB:g=original	!LO:LB:g=original	!	!	!	!LO:LB:g=original	!	!LO:LB:g=original	!	!	!
=5	=5	=5	=5	=5	=5	=5	=5	=5	=5	=5	=5	=5
.	.	.	.	.	.	.	16qqb-/	.	.	.	.	.
4r	4r	4r	4r	1ryy	1ryy	1ryy	16.a-\	u-	2r	4r	1ryy	1ryy
.	.	.	.	.	.	.	32a-\	-ti-	.	.	.	.
.	.	.	.	.	.	.	8a-\	-que	.	.	.	.
!	!	!	!	!	!	!	!	!	!	!LO:LB:g=original	!	!
16r	16r	16r	16r	.	.	.	4r	.	.	4r	.	.
16A-\	16e-\	16c/	16a-/	.	.	.	.	.	.	.	.	.
8A-\	8e-\	8c/	8a-/	.	.	.	.	.	.	.	.	.
4r	4r	4r	4r	.	.	.	8.cc\	ho-	4r	4r	.	.
.	.	.	.	.	.	.	16a-\	-lo-	.	.	.	.
.	.	.	.	.	.	.	8qqg/	.	.	.	.	.
!	!	!	!LO:N:vis=16	!	!	!	!	!	!	!	!	!
8r	8r	8r	8r	.	.	.	8f/	-cauſ-	8r	8r	.	.
16r	16r	16r	16r	.	.	.	8f/	-tis	16r	16r	.	.
16A-\	16F/	16c/	16f/	.	.	.	.	.	16f\	16f\	.	.
=6	=6	=6	=6	=6	=6	=6	=6	=6	=6	=6	=6	=6
8A-\	8F/	8c/	8f/	1ryy	1ryy	1ryy	8r	.	8f\	8f\	1ryy	1ryy
8r	8r	8r	8r	.	.	.	16a-\	non	8r	8r	.	.
*	*	*	*	*	*	*	*	*ij	*	*	*	*
.	.	.	.	.	.	.	16f/	non	.	.	.	.
.	.	.	.	.	.	.	8qqe-/	.	.	.	.	.
8r	8r	8r	8r	.	.	.	8dn/	non	8r	8r	.	.
*	*	*	*	*	*	*	*	*Xij	*	*	*	*
16r	16r	16r	16r	.	.	.	8r	.	16r	16r	.	.
16BB-/	16d\	16f/	16a-/	.	.	.	.	.	16B-/	16f/	.	.
8BB-/	8d\	8f/	8a-/	.	.	.	16r	.	8B-/	8f\	.	.
.	.	.	.	.	.	.	16a-\	non	.	.	.	.
4r	4r	4r	4r	.	.	.	16f/	de-	4r	4r	.	.
.	.	.	.	.	.	.	16d/	-lec-	.	.	.	.
.	.	.	.	.	.	.	16qqd/LL	.	.	.	.	.
.	.	.	.	.	.	.	16qqf/JJ	.	.	.	.	.
.	.	.	.	.	.	.	16e-/	-ta-	.	.	.	.
.	.	.	.	.	.	.	16B-/	-be-	.	.	.	.
16r	16r	16r	16r	.	.	.	8B-/	-ris	16r	16r	.	.
16E-\	16B-/	16G/	16e-/	.	.	.	.	.	16G/	16e-\	.	.
=7	=7	=7	=7	=7	=7	=7	=7	=7	=7	=7	=7	=7
8E-\L	8B-/L	8G/L	8e-/L	1ryy	1ryy	1ryy	1r	.	8G/L	8e-\L	1ryy	1ryy
8E-\J	8B-/J	8G/J	8e-/J	.	.	.	.	.	8G/J	8e-\J	.	.
*2\right	*	*	*	*	*	*	*	*	*	*2\right	*	*
2E-\	2B-/	2G/	2e-/	.	.	.	.	.	2G/	2e-\	.	.
4r	4r	4r	4r	.	.	.	.	.	4r	4r	.	.
=||	=||	=||	=||	=||	=||	=||	=||	=||	=||	=||	=||	=||
*-	*-	*-	*-	*-	*-	*-	*-	*-	*-	*-	*-	*-
!!!system-decoration: [(g1)][(g2)][(g3)][(g4)]s12
!!!ENC: Tomasz Grochalski
!!!END: 2020-11-01
!!!ENC: Marta Lawrence
!!!END: 2022-04-12
